X: 31
T:Kitty O'Niel's Champion 
% Nottingham Music Database
S:Chicago
M:4/4
L:1/8
R:Hornpipe
K:A
AB|"A"c2^B2 c2B2|"A"c^Bcf ecAc|"Bm"B2^A2 B2A2|"Bm"Bagf "E7"edcB|
"A"c2^B2 c2B2|"A"c^Bcf ecAc|"Bm"B2^A2 B2=a2|"E7"(3gfe(3dcB "A"A4|
"A"c2a2 c2Bc|"Bm"d2b2 B2Bc|"D"defg agaf|"E7"(3efe(3dcB "A"c2A2|
"A"c2a2 c2Bc|"Bm"d2b2 B2Bc|"D"defg agaf|"E7"(3efe(3dcB "A"A2:|<end>
<start>
